X: 40
T:South
R:
M:3/4
L:1/4
K:G
|B3/2 A/2 G|Bcd|A2 A|A2 c|
B3/2 A/2 G|EDE|G3|G2 c|
B3/2 A/2 G|Bcd|A2 A|A2 c|
B3/2 A/2 G|EDE|G3|G2 d|
g2 g|g3/2 f/2 e|d2 d|d2 c|
B3/2 A/2 G|Bcd|A3|A2 d/2d/2|
g2 g|g3/2 f/2 e|d2 d|d2 c/2c/2|
B3/2 A/ G|A3/2 c/2 F|G3|G3|
